X:1
T:Title
%%score { ( 1 3 ) | ( 2 4 ) }
L:1/8
M:4/4
K:Ab
V:1 treble nm="Grand Piano"
V:3 treble 
V:2 bass 
V:4 bass 
V:1
 z4 z2 z[Q:1/4=92] [CE] | [CE]>[CE] [_C=D][=CE] [Ec][EB][EA][EG] | [DF][FB][FA][DF] [CE]3 [CE] | %3
 E>D DE GB[Fd][Gd] | [Fd]>[Ec] [Ec][=D_c] [E=c]3 [CE] | [CE]>[CE] [_C=D][=CE] [Ec][EB][EA][EG] | %6
 [DF][FB][FA][DF] [CE]2 [Ec][Ec] | [EB]<[EB] [B,E]>[B,E] [EG]2 [=DF]>F |[M:3/4] E6 |[M:1/4] CD | %10
[M:4/4] [CE]<[CE] [CE]>[DF] [CE]2 [CA][DB] | c-<[Ec-] [Fc-]>[Gc-] [Ac]2 [Ec][Fc] | %12
 d<d c>B e2 [GB][G_c] | c6 z2 | F>F FF [DG]2 [DG][DG] | [EA]>[EA] [EA]B c2 cc | d<d A>B c2 B>B | %17
[M:7/8] [CEA]-[CEA]-[CEA]- [CEA]3 z |] %18
V:2
 z4 z2 z [A,,A,] | [A,,A,]>[A,,A,] [A,,A,][A,,A,] [A,,A,][B,,G,][C,A,][C,A,] | %2
 [D,A,][D,D][D,D][D,A,] [A,,A,]3 [A,,A,] | %3
 [E,A,C]>[E,G,B,] [E,G,B,][E,A,C] [E,B,D][E,G,E][E,A,][E,B,] | %4
 [A,,A,]>[A,,A,] [A,,A,][A,,A,] [A,,A,]3 [A,,A,] | %5
 [A,,A,]>[A,,A,] [A,,A,][A,,A,] [A,,A,][B,,G,][C,A,][C,A,] | %6
 [D,A,][D,D][D,D][D,A,] [A,,A,]2 [A,,A,][A,,A,] | %7
 [B,,G,]<[B,,G,] [B,,G,]>[B,,G,] [B,,B,]2 [B,,A,]>[B,,A,B,] |[M:3/4] [G,B,]2 B,A, G,2 | %9
[M:1/4] [E,A,][E,G,B,] |[M:4/4] [A,,A,]<[A,,A,] [A,,A,]>[A,,A,] [A,,A,]2 [A,,E,][A,,E,] | %11
 [A,,A,]6 [A,,A,][G,,E,] | [B,,E,]<[B,,E,] [E,B,]>[E,B,] [E,B,]2 [E,E][E,E] | %13
 .A2 z2 z2[K:bass] [A,C][A,C] | [D,A,D]>[D,A,D] [D,A,D][D,A,D] [B,,E,]2 [B,,E,][B,,E,] | %15
 [C,A,]>[C,A,] [C,A,][E,G,E] [A,E]2 [_G,A,E][G,A,E] | %16
 [F,A,D]<[F,A,D] [=E,A,=D]>[E,A,D] [_E,A,E]2 [E,_DE]>[E,DE] |[M:7/8] A,,-A,,-A,,- A,,3 z |] %18
V:3
 x8 | x8 | x8 | x8 | x8 | x8 | x8 | x8 |[M:3/4] z2 DC B,2 |[M:1/4] x2 |[M:4/4] x8 | .E2 z2 z4 | %12
 G6 z2 | z/ A3/2 G>F E2 EE | x8 | x8 | x8 |[M:7/8] x7 |] %18
V:4
 x8 | x8 | x8 | x8 | x8 | x8 | x8 | x8 |[M:3/4] E,6 |[M:1/4] x2 |[M:4/4] x8 | x8 | x8 | %13
 [A,-E]4 A,2[K:bass] z2 | x8 | x8 | x8 |[M:7/8] x7 |] %18

